public/images/home/amazon.svg

<svg width="224" height="80" viewBox="0 0 224 80" fill="none" xmlns="http://www.w3.org/2000/svg">
<g clip-path="url(#clip0)">
<path d="M86.8776 33.4429C84.0982 33.4429 80.9956 34.5068 80.3454 38.009C80.2761 38.381 80.524 38.5585 80.7634 38.6129L83.6121 38.9522C83.8758 38.9389 84.0545 38.6539 84.1055 38.3858C84.3486 37.1806 85.3463 36.6118 86.4607 36.6118C87.0623 36.6118 87.738 36.8171 88.0941 37.3666C88.5024 37.9788 88.4733 38.8109 88.4733 39.5174V39.9328C86.7804 40.126 84.5515 40.2432 82.9668 40.9521C81.1377 41.76 79.8532 43.4036 79.8532 45.8202C79.8532 48.9166 81.7624 50.4624 84.2209 50.4624C86.2967 50.4624 87.4439 49.9781 89.0445 48.3116C89.5755 49.0965 89.7457 49.4528 90.7155 50.274C90.8227 50.3348 90.9465 50.3603 91.0692 50.3468C91.1919 50.3334 91.3072 50.2817 91.3985 50.1991V50.2366C91.9818 49.7076 93.0428 48.7463 93.6395 48.2367C93.8777 48.0386 93.8254 47.7126 93.6395 47.4445C93.106 46.6933 92.5384 46.087 92.5384 44.6898V40.0476C92.5384 38.0815 92.7061 36.2688 91.2855 34.915C90.1637 33.8197 88.297 33.4429 86.8776 33.4429ZM125.159 33.4429C122.379 33.4429 119.279 34.5068 118.627 38.009C118.558 38.381 118.805 38.5585 119.045 38.6129L121.894 38.9522C122.158 38.9389 122.337 38.6539 122.387 38.3858C122.632 37.1806 123.628 36.6118 124.743 36.6118C125.345 36.6118 126.02 36.8171 126.376 37.3666C126.783 37.9788 126.717 38.8109 126.717 39.5174V39.9328C125.024 40.126 122.835 40.2432 121.249 40.9521C119.418 41.76 118.135 43.4036 118.135 45.8202C118.135 48.9166 120.045 50.4624 122.503 50.4624C124.576 50.4624 125.723 49.9781 127.326 48.3116C127.856 49.0965 128.027 49.4528 128.997 50.274C129.216 50.3899 129.487 50.3779 129.68 50.1991V50.2366C130.264 49.7076 131.325 48.7463 131.921 48.2367C132.158 48.0386 132.104 47.7126 131.921 47.4445C131.388 46.6933 130.82 46.087 130.82 44.6898V40.0476C130.82 38.0815 130.948 36.2688 129.53 34.915C128.407 33.8197 126.579 33.4429 125.159 33.4429ZM103.626 33.5938C101.829 33.5938 100.497 34.4947 99.7901 36.4246H99.7524V34.4247C99.7428 34.2876 99.6836 34.1585 99.5858 34.0613C99.488 33.9641 99.3581 33.9053 99.2201 33.8957H96.4857C96.3352 33.8979 96.1915 33.9583 96.0851 34.064C95.9787 34.1698 95.9179 34.3126 95.9157 34.4621V49.7462C95.9287 49.8822 95.9889 50.0094 96.0861 50.1059C96.1833 50.2025 96.3112 50.2623 96.448 50.2752H99.372C99.5227 50.2736 99.6668 50.2135 99.7733 50.1076C99.8799 50.0017 99.9404 49.8585 99.942 49.7088V41.5946C99.942 39.8253 99.8557 37.4052 101.955 37.4052C104.027 37.4052 103.74 39.8918 103.74 41.5946V49.7088C103.74 49.9974 103.977 50.2559 104.272 50.2752H107.196C107.347 50.2736 107.491 50.2135 107.597 50.1076C107.704 50.0017 107.765 49.8585 107.766 49.7088V41.5946C107.766 40.7263 107.731 39.4618 108.032 38.6889C108.332 37.916 109.07 37.4064 109.78 37.4064C110.626 37.4064 111.271 37.6999 111.489 38.7276C111.625 39.3387 111.564 40.9533 111.564 41.5958V49.71C111.564 49.9986 111.801 50.2571 112.096 50.2764H115.02C115.171 50.2748 115.315 50.2147 115.421 50.1088C115.528 50.0029 115.589 49.8597 115.59 49.71V40.0488C115.59 38.4076 115.757 36.5441 114.831 35.2556C114.013 34.0986 112.676 33.595 111.451 33.595C109.732 33.595 108.134 34.4959 107.426 36.4258C106.607 34.4959 105.452 33.5938 103.626 33.5938ZM153.34 33.5938C149.114 33.5938 146.77 37.2856 146.77 42.0474C146.77 46.7766 149.089 50.5759 153.34 50.5759C157.429 50.5759 160.024 46.8636 160.024 42.1972C160.024 37.375 157.673 33.5938 153.34 33.5938ZM170.011 33.5938C167.992 33.5938 166.839 34.5974 166.024 36.6878H165.986V34.3474C165.934 34.1107 165.709 33.9465 165.454 33.932H162.757C162.618 33.9289 162.482 33.9773 162.377 34.0679C162.272 34.1585 162.204 34.2848 162.187 34.4223V49.7064C162.19 49.8494 162.246 49.9864 162.344 50.091C162.442 50.1955 162.576 50.2603 162.719 50.2728H165.606C165.756 50.2706 165.9 50.2102 166.006 50.1045C166.113 49.9987 166.173 49.8559 166.176 49.7064V41.4798C166.176 40.4485 166.263 39.5077 166.669 38.5742C166.997 37.8339 167.63 37.3666 168.34 37.3666C170.355 37.3666 170.163 39.8072 170.163 41.4798V49.7825C170.182 49.9125 170.245 50.0321 170.342 50.1214C170.439 50.2107 170.563 50.2641 170.695 50.2728H173.619C173.906 50.2728 174.155 50.0554 174.189 49.7825V40.1587C174.189 38.6793 174.193 36.6238 173.43 35.4029C172.612 34.0853 171.318 33.5938 170.011 33.5938ZM134.919 33.8583C134.623 33.8583 134.388 34.0926 134.387 34.4247V36.613C134.388 36.9402 134.616 37.1769 134.919 37.1794H139.933L134.198 45.5955C133.848 46.1378 133.818 46.7525 133.818 47.1051V49.332C133.818 49.6533 134.17 50.0023 134.501 49.8223C137.769 48.0495 141.686 48.2065 144.642 49.7849C145 49.9793 145.364 49.6146 145.364 49.2946V46.9541C145.355 46.7816 145.302 46.6142 145.209 46.4685C145.115 46.3228 144.985 46.2038 144.831 46.1233C143.154 45.1644 141.207 44.8709 139.363 44.9156L144.338 37.6697C144.799 37.0187 145.056 36.6263 145.06 36.3111V34.4247C145.06 34.0998 144.836 33.8583 144.528 33.8583H134.919ZM153.34 36.7265C154.266 36.7265 154.949 37.1371 155.277 38.1986C155.656 39.422 155.695 40.9497 155.695 42.237C155.695 44.1983 155.603 47.4445 153.34 47.4445C151.051 47.4445 151.061 43.4254 151.061 41.5571C151.061 39.6937 151.186 36.7265 153.34 36.7265ZM88.4344 42.3119V42.9532C88.4344 44.1137 88.4769 45.0907 87.9021 46.1233C87.4378 46.9626 86.7087 47.4819 85.8895 47.4819C84.7715 47.4819 84.1043 46.581 84.1043 45.2936C84.1055 42.7551 86.3246 42.3119 88.4344 42.3119ZM126.716 42.3119V42.9532C126.716 44.1137 126.759 45.0907 126.184 46.1233C125.72 46.9626 124.994 47.4819 124.171 47.4819C123.052 47.4819 122.386 46.581 122.386 45.2936C122.387 42.7551 124.604 42.3119 126.716 42.3119Z" fill="#201C1D"/>
<path d="M145.667 50.7658V52.9541H147.149V50.7658H145.667ZM102.714 51.1426V66.7286H104.081V65.3326C104.373 65.8857 104.704 66.2999 105.107 66.5777C105.508 66.8554 105.968 66.9931 106.474 66.9931C107.478 66.9931 108.344 66.4835 109.094 65.4461C109.844 64.4087 110.234 62.9052 110.234 60.9923C110.234 59.7399 110.072 58.7025 109.741 57.8221C109.409 56.9442 108.965 56.2908 108.411 55.8597C107.857 55.4286 107.227 55.181 106.55 55.181C106.08 55.1761 105.618 55.307 105.221 55.5578C104.826 55.809 104.506 56.2184 104.195 56.728V51.1426H102.714ZM116.766 54.8042C115.736 54.8042 114.918 55.1073 114.336 55.71C113.754 56.3114 113.462 57.0879 113.462 58.0504C113.462 58.6095 113.588 59.0817 113.803 59.5225C114.018 59.9633 114.328 60.3172 114.715 60.5792C115.104 60.8413 115.879 61.1855 117.031 61.5599C117.828 61.8147 118.305 62.032 118.513 62.2011C118.814 62.4487 118.968 62.7735 118.968 63.2204C118.968 63.7373 118.788 64.1684 118.436 64.5029C118.085 64.8398 117.596 64.9932 116.955 64.9932C116.313 64.9932 115.784 64.8145 115.398 64.4268C115.011 64.0392 114.802 63.4498 114.715 62.6528L113.233 62.9547C113.568 65.376 114.783 66.5789 116.879 66.5777C117.997 66.5777 118.853 66.2625 119.499 65.597C120.146 64.9316 120.486 64.0331 120.486 62.9547C120.486 62.3726 120.383 61.8678 120.182 61.4451C119.982 61.0224 119.706 60.7097 119.346 60.4645C118.985 60.2206 118.181 59.8945 116.953 59.4839C116.061 59.1735 115.539 58.9465 115.359 58.8052C115.056 58.5661 114.903 58.24 114.903 57.8246C114.903 57.3995 115.044 57.0396 115.359 56.7679C115.674 56.4961 116.159 56.3524 116.803 56.3524C117.935 56.3524 118.569 56.9708 118.701 58.2014L120.145 57.9743C120.045 57.1954 119.874 56.5807 119.612 56.1628C119.351 55.745 118.965 55.3923 118.472 55.1436C117.982 54.896 117.416 54.8042 116.766 54.8042ZM125.843 54.8042C124.656 54.8042 123.655 55.2897 122.88 56.3138C122.106 57.3379 121.74 58.8209 121.74 60.7676C121.74 62.6431 122.114 64.1128 122.88 65.1079C123.647 66.1019 124.641 66.5801 125.881 66.5801C126.867 66.5801 127.683 66.2866 128.349 65.6743C129.016 65.0621 129.5 64.1611 129.754 62.9571L128.235 62.6926C127.799 64.2348 126.994 64.992 125.88 64.9944C125.17 64.9944 124.59 64.6949 124.094 64.0512C123.599 63.4064 123.318 62.4499 123.258 61.1831H129.791V60.6541C129.791 58.7496 129.409 57.3198 128.651 56.3138C127.895 55.3078 126.975 54.8042 125.843 54.8042ZM134.844 54.8042C134.489 54.8042 134.179 54.9238 133.895 55.181C133.61 55.4382 133.287 55.972 132.945 56.7654V55.0288H131.616V66.3132H133.097V60.4271C133.097 59.6059 133.175 58.8161 133.364 58.0866C133.47 57.6688 133.672 57.3391 133.934 57.106C134.195 56.8729 134.493 56.7667 134.807 56.7667C135.156 56.7667 135.502 56.9055 135.871 57.1821L136.364 55.408C135.846 54.9974 135.34 54.8042 134.844 54.8042ZM152.997 54.8042C151.824 54.8042 150.858 55.2945 150.11 56.2763C149.365 57.257 148.97 58.7303 148.97 60.6915C148.97 62.6371 149.369 64.1116 150.11 65.1067C150.85 66.1006 151.776 66.5789 152.92 66.5789C153.864 66.5789 154.676 66.2299 155.351 65.5222C156.025 64.8145 156.436 63.7735 156.604 62.4282L155.16 62.2011C155.053 63.1636 154.8 63.8556 154.4 64.3145C154 64.771 153.519 64.9932 152.957 64.9932C152.24 64.9932 151.629 64.6611 151.171 63.974C150.713 63.2868 150.488 62.1878 150.488 60.6529C150.488 59.1651 150.73 58.0915 151.21 57.4067C151.69 56.722 152.302 56.35 153.033 56.35C153.522 56.35 153.939 56.5384 154.286 56.9164C154.636 57.2932 154.868 57.8922 155.008 58.653L156.452 58.3511C156.278 57.1628 155.894 56.2655 155.274 55.6713C154.654 55.0759 153.902 54.8042 152.997 54.8042ZM161.466 54.8042C160.279 54.8042 159.277 55.2897 158.503 56.3138C157.729 57.3379 157.363 58.8209 157.363 60.7676C157.363 62.6431 157.736 64.1128 158.503 65.1079C159.271 66.1019 160.264 66.5801 161.504 66.5801C162.487 66.5801 163.305 66.2866 163.972 65.6743C164.638 65.0621 165.122 64.1611 165.377 62.9571L163.858 62.6926C163.421 64.2348 162.652 64.992 161.541 64.9944C160.832 64.9944 160.214 64.6949 159.718 64.0512C159.223 63.4064 158.943 62.4499 158.882 61.1831H165.415V60.6541C165.415 58.7496 165.033 57.3198 164.275 56.3138C163.521 55.3078 162.599 54.8042 161.466 54.8042ZM170.239 54.8042C169.206 54.8042 168.391 55.1073 167.809 55.71C167.225 56.3114 166.935 57.0879 166.935 58.0504C166.935 58.6095 167.024 59.0817 167.239 59.5225C167.453 59.9621 167.761 60.3172 168.15 60.5792C168.537 60.8413 169.316 61.1855 170.467 61.5599C171.261 61.8147 171.778 62.032 171.986 62.2011C172.287 62.4487 172.441 62.7735 172.441 63.2204C172.441 63.7373 172.262 64.1684 171.909 64.5029C171.559 64.8398 171.069 64.9932 170.428 64.9932C169.785 64.9932 169.257 64.8145 168.871 64.4268C168.484 64.0392 168.235 63.4498 168.149 62.6528L166.668 62.9547C167.002 65.376 168.215 66.5789 170.313 66.5777C171.433 66.5777 172.325 66.2625 172.972 65.597C173.62 64.9316 173.959 64.0331 173.959 62.9547C173.959 62.3726 173.856 61.8678 173.655 61.4451C173.455 61.0224 173.143 60.7097 172.782 60.4645C172.422 60.2206 171.654 59.8945 170.426 59.4839C169.534 59.1735 168.974 58.9465 168.793 58.8052C168.49 58.5661 168.337 58.24 168.337 57.8246C168.337 57.3995 168.516 57.0396 168.831 56.7679C169.146 56.4961 169.633 56.3524 170.275 56.3524C171.407 56.3524 172.04 56.9708 172.173 58.2014L173.617 57.9743C173.516 57.1954 173.347 56.5807 173.084 56.1628C172.806 55.7257 172.411 55.3731 171.944 55.1436C171.457 54.896 170.888 54.8042 170.239 54.8042ZM136.363 55.03L139.667 66.3144H141.072L144.377 55.03H142.857L140.92 61.9366C140.686 62.7711 140.479 63.4921 140.35 64.0875C140.189 63.3375 140.034 62.5501 139.818 61.7857L137.92 55.03H136.363ZM145.667 55.03V66.3144H147.149V55.03H145.667ZM96.98 55.181C95.8048 55.181 94.8593 55.7051 94.0937 56.728C93.3268 57.7521 92.916 59.2351 92.916 61.1819C92.916 63.0573 93.2952 64.4896 94.056 65.4835C94.8168 66.4774 95.8291 66.9931 97.0565 66.9931C98.0312 66.9931 98.8272 66.6622 99.4871 66.0499C100.146 65.4376 100.602 64.5367 100.854 63.3327L99.3729 63.1057C98.9415 64.6478 98.1576 65.405 97.0565 65.4074C96.3529 65.4074 95.7623 65.1079 95.2713 64.4643C94.7803 63.8194 94.4947 62.8629 94.4352 61.5961H100.891L100.928 61.0671C100.928 59.1627 100.54 57.6953 99.7885 56.6894C99.0375 55.6834 98.0993 55.181 96.98 55.181ZM80.3073 55.4455L82.9664 66.7298H84.5232L86.2708 58.0492L86.5746 59.9742L87.9795 66.7298H89.4986L92.1954 55.4455H90.7905L89.309 61.9741L88.8156 64.1624L88.3599 61.9741L87.0692 55.4455H85.5501L84.1829 62.0502L83.7272 64.3906L83.1949 61.9753L81.8277 55.4467H80.3073V55.4455ZM174.834 55.559V56.088H176.278V59.8619H176.848V56.088H178.292V55.559H174.834ZM178.861 55.559V59.8607H179.393V56.2003L180.646 59.8607H181.178L182.431 56.2751V59.8607H183.001V55.559H182.204L181.178 58.5781C181.075 58.8801 181.001 59.0986 180.95 59.2568L180.721 58.6156L179.696 55.559H178.861ZM125.804 56.3512C126.542 56.3512 127.15 56.7063 127.627 57.4079C127.955 57.8886 128.168 58.6204 128.235 59.5962H123.336C123.382 58.6059 123.664 57.8415 124.133 57.2558C124.602 56.67 125.142 56.3512 125.804 56.3512ZM161.428 56.3512C162.164 56.3512 162.774 56.7063 163.251 57.4079C163.579 57.8886 163.792 58.6204 163.859 59.5962H158.96C159.006 58.6059 159.288 57.8415 159.757 57.2558C160.225 56.6725 160.765 56.3512 161.428 56.3512ZM96.98 56.7667C97.7092 56.7667 98.2949 57.1217 98.7653 57.8234C99.0897 58.304 99.3061 59.0358 99.3729 60.0116H94.5494C94.5956 59.0214 94.8423 58.2195 95.309 57.6338C95.772 57.0493 96.3225 56.7667 96.98 56.7667ZM106.399 56.7667C107.057 56.7667 107.617 57.1302 108.07 57.8234C108.522 58.5178 108.715 59.5877 108.715 61.0695C108.715 62.5127 108.501 63.5887 108.032 64.3157C107.563 65.0427 107.004 65.4099 106.399 65.4099C105.954 65.4099 105.549 65.2613 105.183 64.957C104.816 64.6527 104.548 64.2167 104.347 63.6358C104.147 63.0549 104.043 62.1613 104.043 60.9935C104.043 59.6179 104.29 58.5878 104.765 57.8608C105.24 57.1338 105.793 56.7667 106.399 56.7667Z" fill="black"/>
<path d="M59.0204 44.803L53.362 47.2183L58.6023 49.4453L64.6788 47.2183L59.0204 44.803ZM50.5133 47.8222L50.3237 58.6911L58.6023 62.3141V51.0297L50.5133 47.8222ZM67.5275 47.8222L60.0461 50.6529V61.2948L67.5275 58.2757V47.8222ZM76.4526 14.0078L70.7553 16.4231L76.0345 18.65L82.111 16.4231L76.4526 14.0078ZM68.5532 17.2165V28.0854L75.6165 30.1239L75.845 20.2356L68.5532 17.2165ZM84.352 17.8203L77.6679 20.6511V31.3316L84.352 28.3125V17.8203ZM49.6966 29.3052L44.0382 31.7205L49.2786 33.9474L55.3551 31.7205L49.6966 29.3052ZM41.1896 32.3243L41 43.1932L49.2786 46.8162V35.5318L41.1896 32.3243ZM58.2037 32.3243L50.7224 35.155V45.7969L58.2037 42.7778V32.3243ZM67.9261 28.9042L62.2677 31.3195L67.508 33.5464L73.5845 31.3195L67.9261 28.9042ZM59.419 31.9234L59.2294 42.7923L67.508 46.4153V35.1321L59.419 31.9234ZM76.4332 31.9234L68.9518 34.7541V45.396L76.4332 42.3768V31.9234ZM94.2579 14.0078L88.5995 16.4231L93.8398 18.65L99.9163 16.4231L94.2579 14.0078ZM85.7508 17.0269L85.5612 27.8958L93.8398 31.5188V20.2356L85.7508 17.0269ZM102.765 17.0269L95.2836 19.8576V30.4995L102.765 27.4804V17.0269Z" fill="#F7A80D"/>
</g>
<defs>
<clipPath id="clip0">
<rect width="142" height="53" fill="white" transform="translate(41 14)"/>
</clipPath>
</defs>
</svg>

<svg xmlns="http://www.w3.org/2000/svg" width="224" height="80" fill="none" xmlns:v="https://vecta.io/nano"><g clip-path="url(#A)"><path d="M86.878 33.443c-2.779 0-5.882 1.064-6.532 4.566-.069.372.179.55.418.604l2.849.339c.264-.013.442-.298.493-.566.243-1.205 1.241-1.774 2.355-1.774.602 0 1.277.205 1.633.755.408.612.379 1.444.379 2.151v.415c-1.693.193-3.922.31-5.506 1.019-1.829.808-3.114 2.451-3.114 4.868 0 3.096 1.909 4.642 4.368 4.642 2.076 0 3.223-.484 4.824-2.151.531.785.701 1.141 1.671 1.962a.59.59 0 0 0 .354.073.58.58 0 0 0 .329-.148v.038l2.241-2c.238-.198.186-.524 0-.792-.534-.751-1.101-1.357-1.101-2.755v-4.642c0-1.966.168-3.779-1.253-5.133-1.122-1.095-2.989-1.472-4.408-1.472zm38.281 0c-2.78 0-5.88 1.064-6.532 4.566-.069.372.178.55.418.604l2.849.339c.264-.013.443-.298.493-.566.245-1.205 1.241-1.774 2.356-1.774.602 0 1.277.205 1.633.755.407.612.341 1.444.341 2.151v.415c-1.693.193-3.882.31-5.468 1.019-1.831.808-3.114 2.451-3.114 4.868 0 3.096 1.91 4.642 4.368 4.642 2.073 0 3.22-.484 4.823-2.151.53.785.701 1.141 1.671 1.962.219.116.49.104.683-.075v.038l2.241-2c.237-.198.183-.524 0-.792-.533-.751-1.101-1.357-1.101-2.755v-4.642c0-1.966.128-3.779-1.29-5.133-1.123-1.095-2.951-1.472-4.371-1.472zm-21.533.151c-1.797 0-3.129.901-3.836 2.831h-.038v-2a.57.57 0 0 0-.167-.363.58.58 0 0 0-.366-.166h-2.734a.58.58 0 0 0-.401.168c-.106.106-.167.249-.169.398v15.284a.59.59 0 0 0 .532.529h2.924a.58.58 0 0 0 .401-.168.57.57 0 0 0 .169-.399v-8.114c0-1.769-.086-4.189 2.013-4.189 2.072 0 1.785 2.487 1.785 4.189v8.114a.58.58 0 0 0 .532.566h2.924c.151-.002.295-.062.401-.168a.57.57 0 0 0 .169-.399v-8.114c0-.868-.035-2.133.266-2.906s1.038-1.282 1.748-1.282c.846 0 1.491.294 1.709 1.321.136.611.075 2.226.075 2.868v8.114a.58.58 0 0 0 .532.566h2.924c.151-.002.295-.062.401-.168a.57.57 0 0 0 .169-.399v-9.661c0-1.641.167-3.505-.759-4.793-.818-1.157-2.155-1.661-3.38-1.661-1.719 0-3.317.901-4.025 2.831-.819-1.93-1.974-2.832-3.8-2.832zm49.714 0c-4.226 0-6.57 3.692-6.57 8.454 0 4.729 2.319 8.528 6.57 8.528 4.089 0 6.684-3.712 6.684-8.379 0-4.822-2.351-8.603-6.684-8.603zm16.671 0c-2.019 0-3.172 1.004-3.987 3.094h-.038v-2.34c-.052-.237-.277-.401-.532-.415h-2.697a.56.56 0 0 0-.57.49v15.284a.58.58 0 0 0 .157.385c.098.105.232.169.375.182h2.887a.58.58 0 0 0 .4-.168c.107-.106.167-.249.17-.398V41.48c0-1.031.087-1.972.493-2.906.328-.74.961-1.208 1.671-1.208 2.015 0 1.823 2.441 1.823 4.113v8.303a.57.57 0 0 0 .179.339c.097.089.221.143.353.151h2.924c.287 0 .536-.217.57-.49v-9.624c0-1.479.004-3.535-.759-4.756-.818-1.318-2.112-1.809-3.419-1.809zm-35.092.264c-.296 0-.531.234-.532.566v2.188c.001.327.229.564.532.566h5.014l-5.735 8.416c-.35.542-.38 1.157-.38 1.51v2.227c0 .321.352.67.683.49a10.86 10.86 0 0 1 10.141-.037c.358.194.722-.17.722-.49v-2.341a1 1 0 0 0-.533-.831c-1.677-.959-3.624-1.252-5.468-1.208l4.975-7.246c.461-.651.718-1.043.722-1.359v-1.886c0-.325-.224-.566-.532-.566h-9.609zm18.421 2.868c.926 0 1.609.411 1.937 1.472.379 1.223.418 2.751.418 4.038 0 1.961-.092 5.207-2.355 5.207-2.289 0-2.279-4.019-2.279-5.887s.125-4.831 2.279-4.831zm-64.906 5.585v.641c0 1.16.043 2.137-.532 3.17-.464.839-1.193 1.359-2.013 1.359-1.118 0-1.785-.901-1.785-2.188.001-2.538 2.22-2.982 4.33-2.982zm38.282 0v.641c0 1.16.043 2.137-.532 3.17-.464.839-1.19 1.359-2.013 1.359-1.119 0-1.785-.901-1.785-2.188.001-2.538 2.218-2.982 4.33-2.982z" fill="#201c1d"/><path d="M145.667 50.766v2.188h1.482v-2.188h-1.482zm-42.953.377v15.586h1.367v-1.396c.292.553.623.967 1.026 1.245s.861.415 1.367.415c1.004 0 1.87-.51 2.62-1.547s1.14-2.541 1.14-4.454c0-1.252-.162-2.29-.493-3.17s-.776-1.531-1.33-1.962-1.184-.679-1.861-.679a2.44 2.44 0 0 0-1.329.377c-.395.251-.715.661-1.026 1.17v-5.585h-1.481zm14.052 3.662c-1.03 0-1.848.303-2.43.906s-.874 1.378-.874 2.34c0 .559.126 1.031.341 1.472s.525.795.912 1.057 1.164.606 2.316.981c.797.255 1.274.472 1.482.641.301.248.455.572.455 1.019 0 .517-.18.948-.532 1.282s-.84.49-1.481.49-1.171-.179-1.557-.566-.596-.977-.683-1.774l-1.482.302c.335 2.421 1.55 3.624 3.646 3.623 1.118 0 1.974-.315 2.62-.981s.987-1.564.987-2.642c0-.582-.103-1.087-.304-1.51a2.38 2.38 0 0 0-.836-.981c-.361-.244-1.165-.57-2.393-.981-.892-.31-1.414-.537-1.594-.679a1.18 1.18 0 0 1-.456-.981c0-.425.141-.785.456-1.057s.8-.415 1.444-.415c1.132 0 1.766.618 1.898 1.849l1.444-.227c-.1-.779-.271-1.394-.533-1.812s-.647-.77-1.14-1.019-1.056-.339-1.706-.339zm9.077 0c-1.187 0-2.188.486-2.963 1.51s-1.14 2.507-1.14 4.454c0 1.875.374 3.345 1.14 4.34s1.761 1.472 3.001 1.472c.986 0 1.802-.293 2.468-.906s1.151-1.513 1.405-2.717l-1.519-.264c-.436 1.542-1.241 2.299-2.355 2.302-.71 0-1.29-.299-1.786-.943s-.776-1.601-.836-2.868h6.533v-.529c0-1.904-.382-3.334-1.14-4.34s-1.676-1.51-2.808-1.51zm9.001 0c-.355 0-.665.12-.949.377s-.608.791-.95 1.584v-1.737h-1.329v11.284h1.481v-5.886c0-.821.078-1.611.267-2.341.106-.418.308-.747.57-.981a1.28 1.28 0 0 1 .873-.339c.349 0 .695.139 1.064.415l.493-1.774c-.518-.411-1.024-.604-1.52-.604zm18.153 0c-1.173 0-2.139.49-2.887 1.472s-1.14 2.454-1.14 4.415c0 1.946.399 3.42 1.14 4.415s1.666 1.472 2.81 1.472c.944 0 1.756-.349 2.431-1.057s1.085-1.749 1.253-3.094l-1.444-.227c-.107.963-.36 1.655-.76 2.113s-.881.679-1.443.679c-.717 0-1.328-.332-1.786-1.019s-.683-1.786-.683-3.321c0-1.488.242-2.561.722-3.246s1.092-1.057 1.823-1.057c.489 0 .906.188 1.253.566s.582.976.722 1.737l1.444-.302c-.174-1.188-.558-2.086-1.178-2.68s-1.372-.867-2.277-.867zm8.469 0c-1.187 0-2.189.486-2.963 1.51s-1.14 2.507-1.14 4.454c0 1.875.373 3.345 1.14 4.34s1.761 1.472 3.001 1.472c.983 0 1.801-.293 2.468-.906s1.15-1.513 1.405-2.717l-1.519-.264c-.437 1.542-1.206 2.299-2.317 2.302-.709 0-1.327-.299-1.823-.943s-.775-1.601-.836-2.868h6.533v-.529c0-1.904-.382-3.334-1.14-4.34s-1.676-1.51-2.809-1.51zm8.773 0c-1.033 0-1.848.303-2.43.906s-.874 1.378-.874 2.34c0 .559.089 1.031.304 1.472s.522.795.911 1.057 1.166.606 2.317.981c.794.255 1.311.472 1.519.641.301.248.455.572.455 1.019 0 .517-.179.948-.532 1.282s-.84.49-1.481.49-1.171-.179-1.557-.566-.636-.977-.722-1.774l-1.481.302c.334 2.421 1.547 3.624 3.645 3.623 1.12 0 2.012-.315 2.659-.981s.987-1.564.987-2.642c0-.582-.103-1.087-.304-1.51s-.512-.735-.873-.981-1.128-.57-2.356-.981c-.892-.31-1.452-.537-1.633-.679a1.18 1.18 0 0 1-.456-.981 1.36 1.36 0 0 1 .494-1.057c.315-.272.802-.415 1.444-.415 1.132 0 1.765.618 1.898 1.849l1.444-.227c-.101-.779-.27-1.394-.533-1.812a2.83 2.83 0 0 0-1.14-1.019c-.487-.248-1.056-.339-1.705-.339zm-33.876.226l3.304 11.284h1.405l3.305-11.284h-1.52l-1.937 6.907-.57 2.151-.532-2.302-1.898-6.756h-1.557zm9.304 0v11.284h1.482V55.03h-1.482zm-48.687.151c-1.175 0-2.121.524-2.886 1.547s-1.178 2.507-1.178 4.454c0 1.875.379 3.308 1.14 4.302s1.773 1.51 3.001 1.51c.975 0 1.771-.331 2.431-.943s1.115-1.513 1.367-2.717l-1.481-.227c-.431 1.542-1.215 2.299-2.316 2.302-.704 0-1.294-.299-1.785-.943s-.777-1.601-.836-2.868h6.456l.037-.529c0-1.904-.388-3.372-1.139-4.378s-1.689-1.508-2.808-1.508zm-16.673.265l2.659 11.284h1.557l1.748-8.681.304 1.925 1.405 6.756h1.519l2.697-11.284h-1.405l-1.481 6.529-.493 2.188-.456-2.188-1.291-6.529H85.55l-1.367 6.605-.456 2.34-.532-2.415-1.367-6.529h-1.52v-.001zm94.527.113v.529h1.444v3.774h.57v-3.774h1.444v-.529h-3.458zm4.027 0v4.302h.532V56.2l1.253 3.66h.532l1.253-3.586v3.586h.57v-4.302h-.797l-1.026 3.019-.228.679-.229-.641-1.025-3.057h-.835zm-53.057.792c.738 0 1.346.355 1.823 1.057.328.481.541 1.212.608 2.188h-4.899c.046-.99.328-1.755.797-2.34s1.009-.905 1.671-.905zm35.624 0c.736 0 1.346.355 1.823 1.057.328.481.541 1.212.608 2.188h-4.899c.046-.99.328-1.755.797-2.34s1.008-.905 1.671-.905zm-64.448.416c.729 0 1.315.355 1.785 1.057.324.481.541 1.212.608 2.188h-4.823c.046-.99.293-1.792.76-2.378s1.014-.867 1.671-.867zm9.419 0c.658 0 1.218.364 1.671 1.057s.645 1.764.645 3.246c0 1.443-.214 2.519-.683 3.246s-1.028 1.094-1.633 1.094c-.445 0-.85-.149-1.216-.453s-.635-.74-.836-1.321-.304-1.475-.304-2.642c0-1.376.247-2.406.722-3.133s1.028-1.094 1.634-1.094z" fill="#000"/><path d="M59.02 44.803l-5.658 2.415 5.24 2.227 6.076-2.227-5.658-2.415zm-8.507 3.019l-.19 10.869 8.279 3.623V51.03l-8.089-3.207zm17.014 0l-7.481 2.831v10.642l7.481-3.019V47.822zm8.925-33.814l-5.697 2.415 5.279 2.227 6.077-2.227-5.658-2.415zm-7.899 3.209v10.869l7.063 2.038.228-9.888-7.292-3.019zm15.799.604l-6.684 2.831v10.681l6.684-3.019V17.82zM49.697 29.305l-5.658 2.415 5.24 2.227 6.077-2.227-5.659-2.415zm-8.507 3.019L41 43.193l8.279 3.623V35.532l-8.089-3.207zm17.014 0l-7.481 2.831v10.642l7.481-3.019V32.324zm9.722-3.42l-5.658 2.415 5.24 2.227 6.077-2.227-5.658-2.415zm-8.507 3.019l-.19 10.869 8.279 3.623V35.132l-8.089-3.209zm17.014 0l-7.481 2.831v10.642l7.481-3.019V31.923zm17.825-17.916L88.6 16.423l5.24 2.227 6.077-2.227-5.658-2.415zm-8.507 3.019l-.19 10.869 8.279 3.623V20.236l-8.089-3.209zm17.014 0l-7.481 2.831V30.5l7.481-3.019V17.027z" fill="#f7a80d"/></g><defs><clipPath id="A"><path fill="#fff" transform="translate(41 14)" d="M0 0h142v53H0z"/></clipPath></defs></svg>
